X:18
T: Mihálynap felé az idő
O: Györgytartó (Zemplén), Szilágyi György (70), 1954.03
L:1/4
M:3/4
Q: "Parlando" 1/4=60
K: C
A/G/A/G/A/G/ | A<Hd |
He/d/c/B/c/d/ | A HA |
D/C/D/C/D/C/ | (D{/G}) HG |
A/G/F/E/F/G/ | D HD |

